X:7626
T:Too Much Beer
O:england
M:2/4
L:1/16
Q:1/4=112
C:Mikhail Krasnikov AKA Edwin
R:Polka ()
K:Bm
|:F2 |B2BB B2f2|e2d2 cBAc|B2ef B2d2|c2A2 F2A2|B2df B2f2|
e2c2 A2Bc|d2B2 A2c2|B4B2 :|
|:A2|d2ga d2a2|g2f2 edef|d2ga d2d'2|b2a2 f2F2|B2ef B2f2|
e2d2 c2Bc|d2B2 c2A2|B4B2 :|
